X:1
T:Title
%%score { ( 1 3 5 ) | ( 2 4 6 ) }
L:1/8
M:4/4
K:F
V:1 treble nm="Grand Piano"
V:3 treble 
V:5 treble 
V:2 bass 
V:4 bass 
V:6 bass 
V:1
 z4 z2[Q:1/4=108] [CFA]>[CGB] | [CAc]2 [CAc]>[CAc] [CAc]2 [CFA]>[Fc] | %2
 [Fd]>[F^c] [Fd]>[Fe] [Ff]2 ed | c2 c>A c2 A2 | [EG]6 [FA]>[GB] | [Ac]2 [Ac]2 [Ac]2 Ac | %6
[M:3/4] [Fd]>[F^c] [Fd]>[Fe] [Ff]2 |[M:1/4] [Fe]>[Fd] |[M:4/4] [Fc]2 [Fd]2 [Fc]2 [EB]>[EG] | %9
[M:3/4] F6 |[M:1/4] A>B |[M:4/4] c6 z2 | [Ac]4 z4 | B6 z2 | [Ac]4 z4 | %15
 [CAc]2 [CAc]2 [CAc]2 F-[Fc] | [Fd]>[F^c] [Fd]>[Fe] [Ff]2 [Fe]>[Fd] | [Fc]2 [Fd]2 [Fc]2 [EB]>[EG] | %18
[M:3/4] F6 |] %19
V:2
 z4 z2 F,>F, | F,2 F,>F, F,2 F,>[F,A,] | [B,,B,]>[B,,A,] [B,,B,]>[B,,C] [B,,D]2 CB, | %3
 [F,A,F]2 [F,A,F]>[F,CF] [F,A,F]2 [F,CF]2 | [C,C]6 [F,C]>[F,C] | z4 z2 .C2 | %6
[M:3/4] [B,,B,]>[B,,A,] [B,,B,]>[B,,C] [B,,D]2 |[M:1/4] [B,,C]>[B,,B,] | %8
[M:4/4] [C,A,]2 [C,A,]2 [C,A,]2 [C,G,]>[C,B,] |[M:3/4] [F,A,]6 |[M:1/4][K:treble] F>G | %11
[M:4/4] A6[K:bass][K:treble] z2[K:bass] | [F,C]2 F,F, F,2[K:treble] E>F | %13
 G6[K:bass][K:treble] z2[K:bass] | F,2 F,F, F,2 F,>F, | F,2 F,2 F,2 z A, | %16
 [B,,B,]>[B,,A,] [B,,B,]>[B,,C] [B,,D]2 [B,,C]>[B,,B,] | [C,A,]2 [C,A,]2 [C,A,]2 [C,G,]>[C,B,] | %18
[M:3/4] [F,A,]6 |] %19
V:3
 x8 | x8 | z4 z2 F2 | x8 | x8 | x8 |[M:3/4] x6 |[M:1/4] x2 |[M:4/4] x8 |[M:3/4] x6 |[M:1/4] x2 | %11
[M:4/4] z2 C>C z A f>[Bd] | z2 C[CGB] [CFA]2 G>A | z2 C>C z G d>[CAc] | %14
 C2 C[CGB] [CFA]2 [CFA]>[CGB] | z4 z2 .[CA]2 | x8 | x8 |[M:3/4] x6 |] %19
V:4
 x8 | x8 | z4 z2 B,,2 | x8 | x8 | [F,C]2 [F,C]2 [F,C]2 [F,F]-[F,A,F] |[M:3/4] x6 |[M:1/4] x2 | %8
[M:4/4] x8 |[M:3/4] x6 |[M:1/4][K:treble] x2 | %11
[M:4/4] z2[K:bass] F,>F, z[K:treble] F A>[K:bass][F,C] | x6[K:treble] x2 | %13
 z2[K:bass] C,>C, z[K:treble] E B>[K:bass]C, | x8 | z4 z2 F,2 | x8 | x8 |[M:3/4] x6 |] %19
V:5
 x8 | x8 | x8 | x8 | x8 | x8 |[M:3/4] x6 |[M:1/4] x2 |[M:4/4] x8 |[M:3/4] x6 |[M:1/4] x2 | %11
[M:4/4] z4 C2 z2 | x8 | z4 C2 z2 | x8 | x8 | x8 | x8 |[M:3/4] x6 |] %19
V:6
 x8 | x8 | x8 | x8 | x8 | x8 |[M:3/4] x6 |[M:1/4] x2 |[M:4/4] x8 |[M:3/4] x6 | %10
[M:1/4][K:treble] x2 |[M:4/4] z4[K:bass] F,2[K:treble] z2[K:bass] | x6[K:treble] x2 | %13
 z4[K:bass] C,2[K:treble] z2[K:bass] | x8 | x8 | x8 | x8 |[M:3/4] x6 |] %19

